X: 74
T: The Green Cockade
B: begged borrowed and stolen
M:2/4
L:1/8
R: march
Q: 1/4=100
K:Adorian
V:1 
gf |:  "Am"eA Ag/f/|e/d/e/f/ g/a/g/f/|"G"dG B/A/G/A/| Bd dg/f/| "Am"eA Ag/f/
e/d/e/f/ g/a/g/f/| "G"dB "Em"gB |1 "Am"BA A2   :|2 "Am"BA Ad ||
|: "Am"eaa/b/a/g/ | e/d/e/f/ g/a/g/e/ | "G"dG B/A/G/A/ | Bd d2 |"Am" ea a/b/a/g/ | e/d/e/f/ g/a/g/e/ | "G"dB  "Em"gB | "Am" BA A2 :|
% abcbook-tune_id 627e2b1f878b2032e626e775


% abcbook-boost 0
% abcbook-tablature 
% abcbook-transpose 
% abcbook-lastupdated 1652725431107
% abcbook-soundfonts 
% abcbook-repeats 3
% Rhythm March
% Transcriptions Only 1 transcription
% Movement Has some stepwise movement
% Mode major
% Key G
% Time_signature 2/4
% Has_accompaniment_chords No chords

